Obsidian/status/22s/stock_weather-fog.svg

<svg height="22" width="22" xmlns="http://www.w3.org/2000/svg"><path d="m4.4238281 4c-.234741 0-.4238281.1890881-.4238281.4238281v1.1523438c0 .23474.1890871.4238281.4238281.4238281h1.1523438c.234741 0 .4238281-.1890881.4238281-.4238281v-1.1523438c0-.23474-.1890871-.4238281-.4238281-.4238281zm4 0c-.234741 0-.4238281.1890881-.4238281.4238281v1.1523438c0 .23474.1890871.4238281.4238281.4238281h1.1523438c.234741 0 .4238281-.1890881.4238281-.4238281v-1.1523438c0-.23474-.1890871-.4238281-.4238281-.4238281zm3.9999999 0c-.234741 0-.423828.1890881-.423828.4238281v1.1523438c0 .23474.189087.4238281.423828.4238281h1.152344c.234741 0 .423828-.1890881.423828-.4238281v-1.1523438c0-.23474-.189087-.4238281-.423828-.4238281zm4 0c-.234741 0-.423828.1890881-.423828.4238281v1.1523438c0 .23474.189087.4238281.423828.4238281h1.152344c.234741 0 .423828-.1890881.423828-.4238281v-1.1523438c0-.23474-.189087-.4238281-.423828-.4238281zm-13.9999999 2c-.234741 0-.4238281.1890881-.4238281.4238281v1.1523438c0 .23474.1890871.4238281.4238281.4238281h1.1523438c.234741 0 .4238281-.1890881.4238281-.4238281v-1.1523438c0-.23474-.1890871-.4238281-.4238281-.4238281zm4 0c-.234741 0-.4238281.1890881-.4238281.4238281v1.1523438c0 .23474.1890871.4238281.4238281.4238281h1.1523438c.234741 0 .4238281-.1890881.4238281-.4238281v-1.1523438c0-.23474-.1890871-.4238281-.4238281-.4238281zm3.9999999 0c-.234741 0-.423828.1890881-.423828.4238281v1.1523438c0 .23474.189087.4238281.423828.4238281h1.152344c.234741 0 .423828-.1890881.423828-.4238281v-1.1523438c0-.23474-.189087-.4238281-.423828-.4238281zm4 0c-.234741 0-.423828.1890881-.423828.4238281v1.1523438c0 .23474.189087.4238281.423828.4238281h1.152344c.234741 0 .423828-.1890881.423828-.4238281v-1.1523438c0-.23474-.189087-.4238281-.423828-.4238281zm4 0c-.234741 0-.423828.1890881-.423828.4238281v1.1523438c0 .23474.189087.4238281.423828.4238281h1.152344c.23474 0 .423828-.1890881.423828-.4238281v-1.1523438c0-.23474-.189088-.4238281-.423828-.4238281zm-13.9999999 2c-.234741 0-.4238281.1890881-.4238281.4238281v1.1523438c0 .23474.1890871.4238281.4238281.4238281h1.1523438c.234741 0 .4238281-.1890881.4238281-.4238281v-1.1523438c0-.23474-.1890871-.4238281-.4238281-.4238281zm4 0c-.234741 0-.4238281.1890881-.4238281.4238281v1.1523438c0 .23474.1890871.4238281.4238281.4238281h1.1523438c.234741 0 .4238281-.1890881.4238281-.4238281v-1.1523438c0-.23474-.1890871-.4238281-.4238281-.4238281zm3.9999999 0c-.234741 0-.423828.1890881-.423828.4238281v1.1523438c0 .23474.189087.4238281.423828.4238281h1.152344c.234741 0 .423828-.1890881.423828-.4238281v-1.1523438c0-.23474-.189087-.4238281-.423828-.4238281zm4 0c-.234741 0-.423828.1890881-.423828.4238281v1.1523438c0 .23474.189087.4238281.423828.4238281h1.152344c.234741 0 .423828-.1890881.423828-.4238281v-1.1523438c0-.23474-.189087-.4238281-.423828-.4238281zm-13.9999999 2c-.234741 0-.4238281.189088-.4238281.423828v1.152344c0 .23474.1890871.423828.4238281.423828h1.1523438c.234741 0 .4238281-.189088.4238281-.423828v-1.152344c0-.23474-.1890871-.423828-.4238281-.423828zm4 0c-.234741 0-.4238281.189088-.4238281.423828v1.152344c0 .23474.1890871.423828.4238281.423828h1.1523438c.234741 0 .4238281-.189088.4238281-.423828v-1.152344c0-.23474-.1890871-.423828-.4238281-.423828zm3.9999999 0c-.234741 0-.423828.189088-.423828.423828v1.152344c0 .23474.189087.423828.423828.423828h1.152344c.234741 0 .423828-.189088.423828-.423828v-1.152344c0-.23474-.189087-.423828-.423828-.423828zm4 0c-.234741 0-.423828.189088-.423828.423828v1.152344c0 .23474.189087.423828.423828.423828h1.152344c.234741 0 .423828-.189088.423828-.423828v-1.152344c0-.23474-.189087-.423828-.423828-.423828zm4 0c-.234741 0-.423828.189088-.423828.423828v1.152344c0 .23474.189087.423828.423828.423828h1.152344c.23474 0 .423828-.189088.423828-.423828v-1.152344c0-.23474-.189088-.423828-.423828-.423828zm-13.9999999 2c-.234741 0-.4238281.189088-.4238281.423828v1.152344c0 .23474.1890871.423828.4238281.423828h1.1523438c.234741 0 .4238281-.189088.4238281-.423828v-1.152344c0-.23474-.1890871-.423828-.4238281-.423828zm4 0c-.234741 0-.4238281.189088-.4238281.423828v1.152344c0 .23474.1890871.423828.4238281.423828h1.1523438c.234741 0 .4238281-.189088.4238281-.423828v-1.152344c0-.23474-.1890871-.423828-.4238281-.423828zm3.9999999 0c-.234741 0-.423828.189088-.423828.423828v1.152344c0 .23474.189087.423828.423828.423828h1.152344c.234741 0 .423828-.189088.423828-.423828v-1.152344c0-.23474-.189087-.423828-.423828-.423828zm4 0c-.234741 0-.423828.189088-.423828.423828v1.152344c0 .23474.189087.423828.423828.423828h1.152344c.234741 0 .423828-.189088.423828-.423828v-1.152344c0-.23474-.189087-.423828-.423828-.423828zm-13.9999999 2c-.234741 0-.4238281.189088-.4238281.423828v1.152344c0 .23474.1890871.423828.4238281.423828h1.1523438c.234741 0 .4238281-.189088.4238281-.423828v-1.152344c0-.23474-.1890871-.423828-.4238281-.423828zm4 0c-.234741 0-.4238281.189088-.4238281.423828v1.152344c0 .23474.1890871.423828.4238281.423828h1.1523438c.234741 0 .4238281-.189088.4238281-.423828v-1.152344c0-.23474-.1890871-.423828-.4238281-.423828zm3.9999999 0c-.234741 0-.423828.189088-.423828.423828v1.152344c0 .23474.189087.423828.423828.423828h1.152344c.234741 0 .423828-.189088.423828-.423828v-1.152344c0-.23474-.189087-.423828-.423828-.423828zm4 0c-.234741 0-.423828.189088-.423828.423828v1.152344c0 .23474.189087.423828.423828.423828h1.152344c.234741 0 .423828-.189088.423828-.423828v-1.152344c0-.23474-.189087-.423828-.423828-.423828zm4 0c-.234741 0-.423828.189088-.423828.423828v1.152344c0 .23474.189087.423828.423828.423828h1.152344c.23474 0 .423828-.189088.423828-.423828v-1.152344c0-.23474-.189088-.423828-.423828-.423828zm-13.9999999 2c-.234741 0-.4238281.189088-.4238281.423828v1.152344c0 .23474.1890871.423828.4238281.423828h1.1523438c.234741 0 .4238281-.189088.4238281-.423828v-1.152344c0-.23474-.1890871-.423828-.4238281-.423828zm4 0c-.234741 0-.4238281.189088-.4238281.423828v1.152344c0 .23474.1890871.423828.4238281.423828h1.1523438c.234741 0 .4238281-.189088.4238281-.423828v-1.152344c0-.23474-.1890871-.423828-.4238281-.423828zm3.9999999 0c-.234741 0-.423828.189088-.423828.423828v1.152344c0 .23474.189087.423828.423828.423828h1.152344c.234741 0 .423828-.189088.423828-.423828v-1.152344c0-.23474-.189087-.423828-.423828-.423828zm4 0c-.234741 0-.423828.189088-.423828.423828v1.152344c0 .23474.189087.423828.423828.423828h1.152344c.234741 0 .423828-.189088.423828-.423828v-1.152344c0-.23474-.189087-.423828-.423828-.423828z" fill="#d3dae3" opacity=".3"/></svg>

<svg xmlns="http://www.w3.org/2000/svg" width="22" height="22" version="1.1">
 <defs>
  <style id="current-color-scheme" type="text/css">
   .ColorScheme-Text { color:#d3dae3; } .ColorScheme-Highlight { color:#5294e2; }
  </style>
 </defs>
 <g transform="translate(-81.000004,-705.29)">
  <path style="opacity:0.3;fill:currentColor" class="ColorScheme-Text" d="M 4.4238281 4 C 4.1890871 4 4 4.1890881 4 4.4238281 L 4 5.5761719 C 4 5.8109119 4.1890871 6 4.4238281 6 L 5.5761719 6 C 5.8109129 6 6 5.8109119 6 5.5761719 L 6 4.4238281 C 6 4.1890881 5.8109129 4 5.5761719 4 L 4.4238281 4 z M 8.4238281 4 C 8.1890871 4 8 4.1890881 8 4.4238281 L 8 5.5761719 C 8 5.8109119 8.1890871 6 8.4238281 6 L 9.5761719 6 C 9.8109129 6 10 5.8109119 10 5.5761719 L 10 4.4238281 C 10 4.1890881 9.8109129 4 9.5761719 4 L 8.4238281 4 z M 12.423828 4 C 12.189087 4 12 4.1890881 12 4.4238281 L 12 5.5761719 C 12 5.8109119 12.189087 6 12.423828 6 L 13.576172 6 C 13.810913 6 14 5.8109119 14 5.5761719 L 14 4.4238281 C 14 4.1890881 13.810913 4 13.576172 4 L 12.423828 4 z M 16.423828 4 C 16.189087 4 16 4.1890881 16 4.4238281 L 16 5.5761719 C 16 5.8109119 16.189087 6 16.423828 6 L 17.576172 6 C 17.810913 6 18 5.8109119 18 5.5761719 L 18 4.4238281 C 18 4.1890881 17.810913 4 17.576172 4 L 16.423828 4 z M 2.4238281 6 C 2.1890871 6 2 6.1890881 2 6.4238281 L 2 7.5761719 C 2 7.8109119 2.1890871 8 2.4238281 8 L 3.5761719 8 C 3.8109129 8 4 7.8109119 4 7.5761719 L 4 6.4238281 C 4 6.1890881 3.8109129 6 3.5761719 6 L 2.4238281 6 z M 6.4238281 6 C 6.1890871 6 6 6.1890881 6 6.4238281 L 6 7.5761719 C 6 7.8109119 6.1890871 8 6.4238281 8 L 7.5761719 8 C 7.8109129 8 8 7.8109119 8 7.5761719 L 8 6.4238281 C 8 6.1890881 7.8109129 6 7.5761719 6 L 6.4238281 6 z M 10.423828 6 C 10.189087 6 10 6.1890881 10 6.4238281 L 10 7.5761719 C 10 7.8109119 10.189087 8 10.423828 8 L 11.576172 8 C 11.810913 8 12 7.8109119 12 7.5761719 L 12 6.4238281 C 12 6.1890881 11.810913 6 11.576172 6 L 10.423828 6 z M 14.423828 6 C 14.189087 6 14 6.1890881 14 6.4238281 L 14 7.5761719 C 14 7.8109119 14.189087 8 14.423828 8 L 15.576172 8 C 15.810913 8 16 7.8109119 16 7.5761719 L 16 6.4238281 C 16 6.1890881 15.810913 6 15.576172 6 L 14.423828 6 z M 18.423828 6 C 18.189087 6 18 6.1890881 18 6.4238281 L 18 7.5761719 C 18 7.8109119 18.189087 8 18.423828 8 L 19.576172 8 C 19.810912 8 20 7.8109119 20 7.5761719 L 20 6.4238281 C 20 6.1890881 19.810912 6 19.576172 6 L 18.423828 6 z M 4.4238281 8 C 4.1890871 8 4 8.1890881 4 8.4238281 L 4 9.5761719 C 4 9.8109119 4.1890871 10 4.4238281 10 L 5.5761719 10 C 5.8109129 10 6 9.8109119 6 9.5761719 L 6 8.4238281 C 6 8.1890881 5.8109129 8 5.5761719 8 L 4.4238281 8 z M 8.4238281 8 C 8.1890871 8 8 8.1890881 8 8.4238281 L 8 9.5761719 C 8 9.8109119 8.1890871 10 8.4238281 10 L 9.5761719 10 C 9.8109129 10 10 9.8109119 10 9.5761719 L 10 8.4238281 C 10 8.1890881 9.8109129 8 9.5761719 8 L 8.4238281 8 z M 12.423828 8 C 12.189087 8 12 8.1890881 12 8.4238281 L 12 9.5761719 C 12 9.8109119 12.189087 10 12.423828 10 L 13.576172 10 C 13.810913 10 14 9.8109119 14 9.5761719 L 14 8.4238281 C 14 8.1890881 13.810913 8 13.576172 8 L 12.423828 8 z M 16.423828 8 C 16.189087 8 16 8.1890881 16 8.4238281 L 16 9.5761719 C 16 9.8109119 16.189087 10 16.423828 10 L 17.576172 10 C 17.810913 10 18 9.8109119 18 9.5761719 L 18 8.4238281 C 18 8.1890881 17.810913 8 17.576172 8 L 16.423828 8 z M 2.4238281 10 C 2.1890871 10 2 10.189088 2 10.423828 L 2 11.576172 C 2 11.810912 2.1890871 12 2.4238281 12 L 3.5761719 12 C 3.8109129 12 4 11.810912 4 11.576172 L 4 10.423828 C 4 10.189088 3.8109129 10 3.5761719 10 L 2.4238281 10 z M 6.4238281 10 C 6.1890871 10 6 10.189088 6 10.423828 L 6 11.576172 C 6 11.810912 6.1890871 12 6.4238281 12 L 7.5761719 12 C 7.8109129 12 8 11.810912 8 11.576172 L 8 10.423828 C 8 10.189088 7.8109129 10 7.5761719 10 L 6.4238281 10 z M 10.423828 10 C 10.189087 10 10 10.189088 10 10.423828 L 10 11.576172 C 10 11.810912 10.189087 12 10.423828 12 L 11.576172 12 C 11.810913 12 12 11.810912 12 11.576172 L 12 10.423828 C 12 10.189088 11.810913 10 11.576172 10 L 10.423828 10 z M 14.423828 10 C 14.189087 10 14 10.189088 14 10.423828 L 14 11.576172 C 14 11.810912 14.189087 12 14.423828 12 L 15.576172 12 C 15.810913 12 16 11.810912 16 11.576172 L 16 10.423828 C 16 10.189088 15.810913 10 15.576172 10 L 14.423828 10 z M 18.423828 10 C 18.189087 10 18 10.189088 18 10.423828 L 18 11.576172 C 18 11.810912 18.189087 12 18.423828 12 L 19.576172 12 C 19.810912 12 20 11.810912 20 11.576172 L 20 10.423828 C 20 10.189088 19.810912 10 19.576172 10 L 18.423828 10 z M 4.4238281 12 C 4.1890871 12 4 12.189088 4 12.423828 L 4 13.576172 C 4 13.810912 4.1890871 14 4.4238281 14 L 5.5761719 14 C 5.8109129 14 6 13.810912 6 13.576172 L 6 12.423828 C 6 12.189088 5.8109129 12 5.5761719 12 L 4.4238281 12 z M 8.4238281 12 C 8.1890871 12 8 12.189088 8 12.423828 L 8 13.576172 C 8 13.810912 8.1890871 14 8.4238281 14 L 9.5761719 14 C 9.8109129 14 10 13.810912 10 13.576172 L 10 12.423828 C 10 12.189088 9.8109129 12 9.5761719 12 L 8.4238281 12 z M 12.423828 12 C 12.189087 12 12 12.189088 12 12.423828 L 12 13.576172 C 12 13.810912 12.189087 14 12.423828 14 L 13.576172 14 C 13.810913 14 14 13.810912 14 13.576172 L 14 12.423828 C 14 12.189088 13.810913 12 13.576172 12 L 12.423828 12 z M 16.423828 12 C 16.189087 12 16 12.189088 16 12.423828 L 16 13.576172 C 16 13.810912 16.189087 14 16.423828 14 L 17.576172 14 C 17.810913 14 18 13.810912 18 13.576172 L 18 12.423828 C 18 12.189088 17.810913 12 17.576172 12 L 16.423828 12 z M 2.4238281 14 C 2.1890871 14 2 14.189088 2 14.423828 L 2 15.576172 C 2 15.810912 2.1890871 16 2.4238281 16 L 3.5761719 16 C 3.8109129 16 4 15.810912 4 15.576172 L 4 14.423828 C 4 14.189088 3.8109129 14 3.5761719 14 L 2.4238281 14 z M 6.4238281 14 C 6.1890871 14 6 14.189088 6 14.423828 L 6 15.576172 C 6 15.810912 6.1890871 16 6.4238281 16 L 7.5761719 16 C 7.8109129 16 8 15.810912 8 15.576172 L 8 14.423828 C 8 14.189088 7.8109129 14 7.5761719 14 L 6.4238281 14 z M 10.423828 14 C 10.189087 14 10 14.189088 10 14.423828 L 10 15.576172 C 10 15.810912 10.189087 16 10.423828 16 L 11.576172 16 C 11.810913 16 12 15.810912 12 15.576172 L 12 14.423828 C 12 14.189088 11.810913 14 11.576172 14 L 10.423828 14 z M 14.423828 14 C 14.189087 14 14 14.189088 14 14.423828 L 14 15.576172 C 14 15.810912 14.189087 16 14.423828 16 L 15.576172 16 C 15.810913 16 16 15.810912 16 15.576172 L 16 14.423828 C 16 14.189088 15.810913 14 15.576172 14 L 14.423828 14 z M 18.423828 14 C 18.189087 14 18 14.189088 18 14.423828 L 18 15.576172 C 18 15.810912 18.189087 16 18.423828 16 L 19.576172 16 C 19.810912 16 20 15.810912 20 15.576172 L 20 14.423828 C 20 14.189088 19.810912 14 19.576172 14 L 18.423828 14 z M 4.4238281 16 C 4.1890871 16 4 16.189088 4 16.423828 L 4 17.576172 C 4 17.810912 4.1890871 18 4.4238281 18 L 5.5761719 18 C 5.8109129 18 6 17.810912 6 17.576172 L 6 16.423828 C 6 16.189088 5.8109129 16 5.5761719 16 L 4.4238281 16 z M 8.4238281 16 C 8.1890871 16 8 16.189088 8 16.423828 L 8 17.576172 C 8 17.810912 8.1890871 18 8.4238281 18 L 9.5761719 18 C 9.8109129 18 10 17.810912 10 17.576172 L 10 16.423828 C 10 16.189088 9.8109129 16 9.5761719 16 L 8.4238281 16 z M 12.423828 16 C 12.189087 16 12 16.189088 12 16.423828 L 12 17.576172 C 12 17.810912 12.189087 18 12.423828 18 L 13.576172 18 C 13.810913 18 14 17.810912 14 17.576172 L 14 16.423828 C 14 16.189088 13.810913 16 13.576172 16 L 12.423828 16 z M 16.423828 16 C 16.189087 16 16 16.189088 16 16.423828 L 16 17.576172 C 16 17.810912 16.189087 18 16.423828 18 L 17.576172 18 C 17.810913 18 18 17.810912 18 17.576172 L 18 16.423828 C 18 16.189088 17.810913 16 17.576172 16 L 16.423828 16 z" transform="translate(81.000004,705.29)"/>
 </g>
</svg>
